packages/components/icon/src/assets/icons/add-current-object.svg

<svg width="24" height="24" viewBox="0 0 24 24" fill="none" xmlns="http://www.w3.org/2000/svg">
<path fill-rule="evenodd" clip-rule="evenodd" d="M7 4V6H6V9H4V6C4 4.89543 4.89543 4 6 4H7ZM8 7H10V6H18V18H10V17H8V18C8 19.1046 8.89543 20 10 20H18C19.1046 20 20 19.1046 20 18V6C20 4.89543 19.1046 4 18 4H10C8.89543 4 8 4.89543 8 6V7ZM8 8H10V11H13V13H10V16H8V13H5V11H8V8ZM6 18V15H4V18C4 19.1046 4.89543 20 6 20H7V18H6Z" fill="currentColor"/>
</svg>

<svg viewBox="0 0 24 24" fill="none" xmlns="http://www.w3.org/2000/svg"><path fill-rule="evenodd" clip-rule="evenodd" d="M7 4v2H6v3H4V6a2 2 0 0 1 2-2h1Zm1 3h2V6h8v12h-8v-1H8v1a2 2 0 0 0 2 2h8a2 2 0 0 0 2-2V6a2 2 0 0 0-2-2h-8a2 2 0 0 0-2 2v1Zm0 1h2v3h3v2h-3v3H8v-3H5v-2h3V8ZM6 18v-3H4v3a2 2 0 0 0 2 2h1v-2H6Z" fill="currentColor"/></svg>
